X:1
T:Title
%%score { ( 1 3 4 ) | ( 2 5 ) }
L:1/8
M:4/4
K:G
V:1 treble nm="Grand Piano"
V:3 treble 
V:4 treble 
V:2 bass 
V:5 bass 
V:1
 z4 z2 [G,B,G]2 | [G,CG]4 [G,D]2 [EB]2 | B4 G2 d2 | d4 z4 |[M:3/4] [DFA]4 z2 |[M:1/4] [^CGA]2 | %6
[M:4/4] z4 ^c2 z2 | z4 [DA]2 z2 | [A,DF]4 [DE]2 E2 |[M:3/4] D4 z2 |[M:1/4] D2 |[M:4/4] c4 A2 F2 | %12
 D2 z2[K:bass] z4 | [Cc]4 [EA]2 [DF]2 |[M:3/4] [B,DG]4 z2 |[M:1/4] [G,D]2 | %16
[M:4/4] [G,DE]4 c2 [A,F]2 | [DG]4 d2 [Cc]2 | [DGB]4 [A,GA]2 [FA]2 |[M:3/4] [B,DG]4 z2 |] %20
V:2
 z4 z2 G,,2 | A,,4 B,,2 [C,G,]2 | [D,F,D]4 [E,G,B,]2 [F,A,D]2 | [G,B,]4 z2 D2 |[M:3/4] D,4 z2 | %5
[M:1/4] E,2 |[M:4/4] z2[K:treble] d2[K:bass] E,2 D,2 | ^C,4 F,2 E,2 | D,4 z2 ^C2 | %9
[M:3/4] [D,F,]4 z2 |[M:1/4] [D,F,]2 |[M:4/4] [E,G,C]4 [A,D]2- [D,A,D]2 | B,,2 A,,2 G,,2 D,2 | %13
 [E,G,]4 C,2 D,2 |[M:3/4] G,,4 z2 |[M:1/4] B,,2 |[M:4/4] z4 F,2 z2 | [B,,G,]4 [=F,B,]2 E,2 | %18
 D,4 z2 C2 |[M:3/4] G,,4 z2 |] %20
V:3
 x8 | x8 | x8 | z4 [Ec]2 [GB]2 |[M:3/4] x6 |[M:1/4] x2 |[M:4/4] [DA]4 [EG]2- [EGB]2 | %7
 [EA]4 A,2- [A,^CG]2 | x8 |[M:3/4] x6 |[M:1/4] x2 |[M:4/4] x8 | %12
 [G,G]2- [G,CG]2[K:bass] [G,B,D]2 [F,D]2 | z4 A,4 |[M:3/4] x6 |[M:1/4] x2 |[M:4/4] z4 C4 | z4 G4 | %18
 x8 |[M:3/4] x6 |] %20
V:4
 x8 | x8 | x8 | z2 G4 z2 |[M:3/4] x6 |[M:1/4] x2 |[M:4/4] x8 | x8 | x8 |[M:3/4] x6 |[M:1/4] x2 | %11
[M:4/4] x8 | x4[K:bass] x4 | x8 |[M:3/4] x6 |[M:1/4] x2 |[M:4/4] x8 | x8 | x8 |[M:3/4] x6 |] %20
V:5
 x8 | x8 | x8 | D2 z2 G,,4 |[M:3/4] x6 |[M:1/4] x2 |[M:4/4] F,4[K:treble][K:bass] z4 | x8 | %8
 z4 [A,,A,]4 |[M:3/4] x6 |[M:1/4] x2 |[M:4/4] z4 F,2 z2 | x8 | x8 |[M:3/4] x6 |[M:1/4] x2 | %16
[M:4/4] C,4 A,,4 | x8 | z4 D,4 |[M:3/4] x6 |] %20

